X: 1130
T: Yellow Legs
R:slip jig
B:O'Neill's 1130
Z:Transcribed by Michael Hogan
M:9/8
L:1/8
K:D
  FEF DED FED | FEF DED GEC | FEF DED FED | EFE cBA GEC :|
|:FDF A2d A2d | FDF A2d GEC | FDF A2d AGF | EGE cBA GEC :|
|:fef dfd g2e | fef dfa gec | faf ged c2A | BAG FAF GEC :|
|:AFF dFF AFF | AFF dFF GEC | AFF dFF AFF | GEE cBA GEC :|


